X:1
T:Pretty Little Miss
M:4/4
L:1/4
K:G
 d| B B G B/2B/2| d2 B A| G G B d| A3| d| g g f e| d/2d/2 B G B/2B/2|\
 d dc/2-B/2 A| G3||
